X:1
T:Ring a Ring o' Roses
C:Traditional
M:4/4
L:1/4
Q:1/4=100
K:C
E E E E | D D D D | C C C C | E G2 G |
A A A A | G G G G | E E E E | C4 |]
w: Ring a ring o' ro- ses a pock- et full of po- sies a- tish- oo a- tish- oo we all fall down |
